X: 335
T:Pensif mari
N: Derived from Jos2730-Pensif_mari.krn
C: Josquin des Prez
%%abc-version 2.0
%%abcx-abcm2ps-target-version 5.9.1 (29 Sep 2008)
%%abc-creator hum2abc beta
%%abcx-conversion-date 2019/02/12 16:15:54
%%abc-edited-by Jesse Rodin
%%abc-edited-by Megan K. Eagen 05/28/3012
%%abcx-initial-encoding-date 2012/06/04/
%%humdrum-veritas 256587908
%%humdrum-veritas-data 958369591
%%linebreak <none>
%%barnumbers 0
L: 1/4
M: 2/1
Q: 1/2=120
V: 1 clef=treble
V: 2 clef=treble-8
V: 3 clef=bass
K: F
[V:1] z8 | 
[V:2] z8 | 
[V:3] G,,8 | 
[V:1] z8 | 
[V:2] z8 | 
[V:3] B,,4C,4 | 
[V:1] z8 | 
[V:2] z8 | 
[V:3] A,,4D,2D,2- | 
[V:1] z8 | 
[V:2] z8 | 
[V:3] D,2C,B,,A,,4 | 
[V:1] z8 | 
[V:2] G8 | 
[V:3] G,,4z2G,2- | 
[V:1] z8 | 
[V:2] B4c4 | 
[V:3] G,2_E,4F,2- | 
[V:1] z8 | 
[V:2] A4d2d2- | 
[V:3] F,2D,4G,2- | 
[V:1] z8 | 
[V:2] d2cBA4 | 
[V:3] G,2E,2F,2G,A, | 
[V:1] D8 | 
[V:2] G4B4 | 
[V:3] B,3A,G,3F, | 
[V:1] F4G4 | 
[V:2] A4G2B2 | 
[V:3] D,4E,4 | 
[V:1] E4A2A2- | 
[V:2] c2A4d2- | 
[V:3] C,4D,4 | 
[V:1] A2GFE4 | 
[V:2] d2B2c2Bc | 
[V:3] F,2G,2A,4 | 
[V:1] D6E2 | 
[V:2] d3ef4 | 
[V:3] B,3A,F,3G, | 
[V:1] F2G2A4 | 
[V:2] B4A4 | 
[V:3] D,2E,2F,4 | 
[V:1] B3AA4- | 
[V:2] G4d4- | 
[V:3] G,2E,2F,2D,2- | 
[V:1] A2GABAGF | 
[V:2] d8 | 
[V:3] D,2E,F,G,4 | 
[V:1] E2D4E2 | 
[V:2] c2B2G4 | 
[V:3] z2G,2B,2G,2 | 
[V:1] F2GAB2A2- | 
[V:2] d4B2c2- | 
[V:3] D,4G,2F,2- | 
[V:1] AGG4^F2 | 
[V:2] cBG2A4 | 
[V:3] F,G,E,2D,4 | 
[V:1] G8 | 
[V:2] G8- | 
[V:3] G,,3A,,B,,2C,2- | 
[V:1] z8 | 
[V:2] G8 | 
[V:3] C,D,E,3F,G,2 | 
[V:1] A4B4 | 
[V:2] z8 | 
[V:3] F,2E,F,G,4 | 
[V:1] A4G4 | 
[V:2] d4_e4 | 
[V:3] D,4z4 | 
[V:1] z4c4 | 
[V:2] d4c4 | 
[V:3] D,4A,4 | 
[V:1] B4A4 | 
[V:2] z4c4 | 
[V:3] G,4A,2F,2 | 
[V:1] G2G4^F2 | 
[V:2] B4A4 | 
[V:3] G,2E,G,D,4 | 
[V:1] G3FEDE2 | 
[V:2] G4c4 | 
[V:3] E,4C,4 | 
[V:1] D2CB,A,3B, | 
[V:2] B2AGF3G | 
[V:3] G,4D,4 | 
[V:1] C2D2E2F2- | 
[V:2] A2B2c2d2- | 
[V:3] z2G,2E,2D,2 | 
[V:1] F2G2F2E2- | 
[V:2] d2e2f2g2- | 
[V:3] F,2E,2D,2C,2- | 
[V:1] EDD4^C2 | 
[V:2] gfd2e4 | 
[V:3] C,D,B,,2A,,2A,2 | 
[V:1] D4z2G2- | 
[V:2] d4c2d2 | 
[V:3] B,2G,2A,2G,2 | 
[V:1] G2A2B2AG | 
[V:2] _e2d3Bc2 | 
[V:3] _E,2F,2G,2F,E, | 
[V:1] !fermata!F8 | 
[V:2] !fermata!d2cBA4 | 
[V:3] !fermata!D,8 | 
[V:1] z8 | 
[V:2] G6A2 | 
[V:3] G,6F,E, | 
[V:1] D4E4 | 
[V:2] B4c4 | 
[V:3] D,4C,4 | 
[V:1] F4G4 | 
[V:2] d4_e4 | 
[V:3] B,,2D,2C,2_E,2 | 
[V:1] A4B4 | 
[V:2] d4G4 | 
[V:3] F,2D,F,_E,4 | 
[V:1] A4D4 | 
[V:2] z4B4 | 
[V:3] F,4G,4 | 
[V:1] z4B4 | 
[V:2] A2B4G2 | 
[V:3] D,4_E,4 | 
[V:1] A2B4G2 | 
[V:2] F2G4B2 | 
[V:3] F,2_E,3F,G,2 | 
[V:1] F2G4B2 | 
[V:2] A2G2B2c2 | 
[V:3] D,2_E,3F,G,2 | 
[V:1] A2G2B2c2 | 
[V:2] d2_e2d2_e2 | 
[V:3] z2C,2G,2_E,2 | 
[V:1] d2_e3dcB | 
[V:2] f2g3f_ed | 
[V:3] D,2C,3D,_E,2 | 
[V:1] A2B4A2 | 
[V:2] c2B2c4 | 
[V:3] F,2G,4F,2 | 
[V:1] B3AF2G2 | 
[V:2] B8- | 
[V:3] G,3F,D,2_E,2 | 
[V:1] F2D3EF2 | 
[V:2] B8 | 
[V:3] D,2B,,3C,D,2 | 
[V:1] B,2D2C4 | 
[V:2] B4A4 | 
[V:3] _E,2B,,2F,4 | 
[V:1] B,8 | 
[V:2] B8 | 
[V:3] z2B,,4_E,2 | 
[V:1] z8 | 
[V:2] A2G2A4 | 
[V:3] F,2G,4^F,2 | 
[V:1] B8 | 
[V:2] G6E2 | 
[V:3] G,8 | 
[V:1] A2G2A4 | 
[V:2] F2G4^F2 | 
[V:3] z8 | 
[V:1] G2FED3E | 
[V:2] G8 | 
[V:3] B,8 | 
[V:1] F2G4^F2 | 
[V:2] z8 | 
[V:3] A,2G,2A,4 | 
[V:1] G4z4 | 
[V:2] d4e4 | 
[V:3] G,8 | 
[V:1] A4B4 | 
[V:2] f4d4 | 
[V:3] F,4G,4 | 
[V:1] c4A4 | 
[V:2] c4d4 | 
[V:3] A,4D,4 | 
[V:1] G4A2B2- | 
[V:2] e4d4 | 
[V:3] z2G,2F,2G,2- | 
[V:1] B2AGF2A2- | 
[V:2] G4B2A2 | 
[V:3] G,2F,E,D,2F,2- | 
[V:1] A2GFE4 | 
[V:2] d4c4 | 
[V:3] F,2E,D,A,4 | 
[V:1] F3GA2B2- | 
[V:2] d8- | 
[V:3] D,3E,F,2G,2- | 
[V:1] Bcd3cA2 | 
[V:2] d8 | 
[V:3] G,A,B,3A,F,2 | 
[V:1] B2AG^F3E | 
[V:2] G4A4 | 
[V:3] _E,4D,4 | 
[V:1] G8 |]  
[V:2] G8 |]  
[V:3] G,,8 |]  



